X:1
T:Polonaise
T:Polonaise
T:No. 4 from 12 Duos, K. 487
T:W. A. Mozart (1756-91)
T:Arranged by Watson Forbes
C:W. A. Mozart (1756-91)
L:1/8
Q:1/4=80
M:3/4
K:A
V:1 treble nm="Violin" snm="Vln."
V:1
"^Allegretto"!mf! .v!4!A.A/.G/ .A.E !tenuto!c2 |!<(! .B.B/.A/ .B.E !tenuto!d2!<)! | %2
!f! (c/!0!e/)(a/g/) (g/f/)(f/e/) (e/d/)(d/c/) |!>(! (B/c/B/A/) (G/A/G/F/) E2!>)! | %4
!mf! .vA.A/.G/ .A.E !tenuto!c2 |!<(! .B.B/.A/ .B.E !tenuto!d2!<)! | %6
!f! (c/e/)(a/g/) (g/f/)(f/e/) (e/d/)(d/c/) |!>(! (c/B/A/G/) (G2 !4!A) z!>)! :| %8
!p! vB3!<(! (dc!4!e)!<)! | e2!>(! (e/d/c/d/ c2)!>)! |!p! B3!<(! d (c/!0!e/)(a/f/)!<)! | %11
 e2!>(! (!4!e/d/c/d/ c2)!>)! |!mf! (^B!4!e) (Be) (g/f/).e/.d/ | (!4!ed)!<(!.d.d.d.d!<)! | %14
!f! (^de)(de) (g/f/).e/.d/ | e2 z (vEGB) | !4!e2 z!>(! (EGB) | =d3 (!0!e/f/) (!4!e/c/d/B/)!>)! | %18
!mf! .v!4!A.A/.G/ .A.E !tenuto!c2 |!<(! .B.B/.A/ .B.E !tenuto!d2!<)! | %20
!f! (c/!0!e/)(a/g/) (g/f/)(f/e/) (e/d/)(d/c/) |!>(! (B/c/B/A/) (G/A/G/F/) E2!>)! | %22
!mf! .vA.A/.G/ .A.E !tenuto!c2 |!<(! .B.B/.A/ .B.E !tenuto!d2!<)! | %24
!f! (c/e/)(a/g/) (g/f/)(f/e/) (e/d/)(d/c/) |!>(! (c/B/A/G/) (G2 !4!A) z!>)! |] %26

